icons/1_Primary/23andMe.svg

<svg width="1024" height="1024" fill="none" xmlns="http://www.w3.org/2000/svg"><g clip-path="url(#a)"><path d="M512 1024c282.77 0 512-229.23 512-512S794.77 0 512 0 0 229.23 0 512s229.23 512 512 512Z" fill="#FF837D"/><path d="M689.7 226.86a60.504 60.504 0 0 0-31.11-35.39c-30.37-14.84-67.45-2.73-82.67 27l-58.76 114.81-1.1-3.62-11.17-36.79c-9.71-31.95-44.1-50.23-76.66-40.77a60.993 60.993 0 0 0-36.95 29.62 59.163 59.163 0 0 0-4.67 45.68l49.76 163.81-15.3 29.92-1.6 3.16-70 136.84a59.131 59.131 0 0 0-3.48 46 60.442 60.442 0 0 0 11.98 20.828 60.437 60.437 0 0 0 19.15 14.512 62.236 62.236 0 0 0 27.38 6.33c22.64 0 44.48-12.25 55.29-33.39l10.66-20.82 17.4-34 2.51 8.28 40.4 133 4.48 14.67 1.4-1.44a62.364 62.364 0 0 0 70.76 27.51 60.995 60.995 0 0 0 37-29.62 59.215 59.215 0 0 0 4.6-45.7l-70.29-231.45-10.09-33.19 117.59-229.9a59.104 59.104 0 0 0 3.49-45.89Zm-285.77 95.29a41.196 41.196 0 0 1 3.26-31.8 42.998 42.998 0 0 1 26.09-20.87c23.1-6.72 47.45 6.14 54.3 28.65l11.17 36.79 6.55 21.55-15.3 29.94-1.65 3.26L448.24 468l-44.31-145.85Zm108.93 59.25 17 55.94 19.32 63.55-15.3 29.91-41.76 81.64-36.31-119.5 50.27-98.27 1.61-3.18 5.17-10.09Zm-38.49 265.74-30.72 60c-10.75 21-37 29.57-58.62 19a42.463 42.463 0 0 1-21.9-24.81 41.178 41.178 0 0 1 2.42-32l71.63-140 1.67-3.3 5.09-9.95 3.57 11.74 32.74 107.75-5.88 11.57ZM559.26 534l72.47 238.5a41.236 41.236 0 0 1-3.27 31.84 43.086 43.086 0 0 1-26.13 20.87c-23.07 6.7-47.41-6.14-54.25-28.64l-3.17-10.36-35.16-115.7-10.05-33.14L550 539l6.76-13.22 2.5 8.22ZM670.1 264.5 561 477.7l-13.87-45.62-22.45-73.87L592 226.71c10.75-21 37.05-29.53 58.61-19a42.548 42.548 0 0 1 21.9 24.86 41.145 41.145 0 0 1-2.42 31.94l.01-.01Z" fill="#fff"/></g><defs><clipPath id="a"><path fill="#fff" d="M0 0h1024v1024H0z"/></clipPath></defs></svg>

<svg width="1024" height="1024" viewBox="0 0 1024 1024" fill="none" xmlns="http://www.w3.org/2000/svg">
<g clip-path="url(#clip0_2_1419)">
<path d="M512 1024C794.77 1024 1024 794.77 1024 512C1024 229.23 794.77 0 512 0C229.23 0 0 229.23 0 512C0 794.77 229.23 1024 512 1024Z" fill="#FF837D"/>
<path d="M689.7 226.86C687.145 219.18 683.075 212.091 677.731 206.012C672.388 199.933 665.879 194.988 658.59 191.47C628.22 176.63 591.14 188.74 575.92 218.47L517.16 333.28L516.06 329.66L504.89 292.87C495.18 260.92 460.79 242.64 428.23 252.1C420.408 254.324 413.109 258.091 406.763 263.178C400.418 268.264 395.154 274.569 391.28 281.72C387.497 288.638 385.134 296.243 384.332 304.088C383.53 311.933 384.305 319.859 386.61 327.4L436.37 491.21L421.07 521.13L419.47 524.29L349.47 661.13C345.837 668.173 343.657 675.874 343.059 683.776C342.461 691.679 343.458 699.62 345.99 707.13C348.549 714.804 352.623 721.887 357.97 727.958C363.317 734.028 369.83 738.963 377.12 742.47C385.645 746.64 395.01 748.805 404.5 748.8C427.14 748.8 448.98 736.55 459.79 715.41L470.45 694.59L487.85 660.59L490.36 668.87L530.76 801.87L535.24 816.54L536.64 815.1C543.763 826.834 554.558 835.89 567.351 840.864C580.145 845.837 594.222 846.451 607.4 842.61C615.232 840.391 622.54 836.627 628.894 831.54C635.249 826.453 640.521 820.146 644.4 812.99C648.172 806.062 650.521 798.452 651.311 790.604C652.101 782.756 651.315 774.83 649 767.29L578.71 535.84L568.62 502.65L686.21 272.75C689.831 265.723 692.006 258.041 692.606 250.158C693.205 242.276 692.217 234.353 689.7 226.86ZM403.93 322.15C402.327 316.899 401.79 311.382 402.349 305.921C402.909 300.46 404.555 295.166 407.19 290.35C409.926 285.306 413.645 280.861 418.125 277.277C422.606 273.693 427.759 271.042 433.28 269.48C456.38 262.76 480.73 275.62 487.58 298.13L498.75 334.92L505.3 356.47L490 386.41L488.35 389.67L448.24 468L403.93 322.15ZM512.86 381.4L529.86 437.34L549.18 500.89L533.88 530.8L492.12 612.44L455.81 492.94L506.08 394.67L507.69 391.49L512.86 381.4ZM474.37 647.14L443.65 707.14C432.9 728.14 406.65 736.71 385.03 726.14C379.905 723.681 375.325 720.219 371.563 715.957C367.801 711.695 364.933 706.721 363.13 701.33C361.371 696.105 360.678 690.581 361.094 685.084C361.51 679.587 363.025 674.23 365.55 669.33L437.18 529.33L438.85 526.03L443.94 516.08L447.51 527.82L480.25 635.57L474.37 647.14ZM559.26 534L631.73 772.5C633.334 777.757 633.871 783.282 633.309 788.75C632.748 794.218 631.099 799.518 628.46 804.34C625.716 809.384 621.99 813.83 617.503 817.414C613.015 820.998 607.857 823.648 602.33 825.21C579.26 831.91 554.92 819.07 548.08 796.57L544.91 786.21L509.75 670.51L499.7 637.37L550 539L556.76 525.78L559.26 534ZM670.1 264.5L561 477.7L547.13 432.08L524.68 358.21L592 226.71C602.75 205.71 629.05 197.18 650.61 207.71C655.737 210.178 660.317 213.651 664.079 217.921C667.841 222.191 670.708 227.172 672.51 232.57C674.264 237.785 674.953 243.299 674.537 248.785C674.121 254.271 672.609 259.618 670.09 264.51L670.1 264.5Z" fill="white"/>
</g>
<defs>
<clipPath id="clip0_2_1419">
<rect width="1024" height="1024" fill="white"/>
</clipPath>
</defs>
</svg>
